img/icons/close.svg

<svg width="21" height="21" viewBox="0 0 21 21" fill="none" xmlns="http://www.w3.org/2000/svg">
<g clip-path="url(#clip0_12833_384)">
<path d="M1.80772 3.22085L3.22193 1.80664L20.1925 18.7772L18.7783 20.1914L1.80772 3.22085Z" fill="white"/>
<path d="M3.22183 20.1915L1.80762 18.7773L18.7782 1.80674L20.1924 3.22096L3.22183 20.1915Z" fill="white"/>
</g>
<defs>
<clipPath id="clip0_12833_384">
<rect width="20" height="20" fill="white" transform="translate(0.807617 0.806641)"/>
</clipPath>
</defs>
</svg>

<svg width="21" height="21" fill="none" xmlns="http://www.w3.org/2000/svg"><g clip-path="url(#a)" fill="#fff"><path d="m1.808 3.22 1.414-1.413 16.97 16.97-1.414 1.414-16.97-16.97Z"/><path d="m3.222 20.192-1.414-1.415 16.97-16.97 1.414 1.414-16.97 16.97Z"/></g><defs><clipPath id="a"><path fill="#fff" transform="translate(.808 .807)" d="M0 0h20v20H0z"/></clipPath></defs></svg>
